X: 1
T: Jackson's Rolling -- JIG
B: Ryan's Mammoth Collection of Fiddle Tunes
R: jig
M: 6/8
L: 1/8
Z: Contributed 20000421034004 by John Chambers jcsd:world.std.com
K: G
TvG3 BGB | (AF)A Tc2A | TG3 BGB | dcB "4"ecA |
| TG3 BGB | (AF)A Tc2A | (GB)c d2f |1 gdB cAF :|2 gdB cAG |]
|: vgdc BGB | (AF)A Tc2A | gdc BGB | dcB "4"ecA |
| gdc BGB | (AF)A Tc2A | (GB)c d2f |1 gdB cAF :|2 gdB cAF |]
